docs/Library/Material/Material3D/Concrete/CustomCDP.EX2.svg

<svg xmlns="http://www.w3.org/2000/svg" width="750" height="300" viewBox="0 0 750 300"><title>Gnuplot</title><desc>Produced by GNUPLOT 5.4 patchlevel 5</desc><path fill="none" d="M0 0h750v300H0z"/><path fill="none" stroke="gray" stroke-dasharray="2,4" stroke-width=".5" d="M64.14 242.4h660.68" class="gridline" color="gray"/><g fill="none" stroke="currentColor" color="#000"><path stroke="#000" d="M64.14 242.4h9m651.68 0h-9"/><text fill="#000" stroke="none" font-family="Arial" font-size="12" text-anchor="end" transform="translate(55.75 246.3)"><tspan> 0</tspan></text></g><path fill="none" stroke="gray" stroke-dasharray="2,4" stroke-width=".5" d="M64.14 197.52h660.68" class="gridline" color="gray"/><g fill="none" stroke="currentColor" color="#000"><path stroke="#000" d="M64.14 197.52h9m651.68 0h-9"/><text fill="#000" stroke="none" font-family="Arial" font-size="12" text-anchor="end" transform="translate(55.75 201.42)"><tspan> 2</tspan></text></g><path fill="none" stroke="gray" stroke-dasharray="2,4" stroke-width=".5" d="M64.14 152.64h660.68" class="gridline" color="gray"/><g fill="none" stroke="currentColor" color="#000"><path stroke="#000" d="M64.14 152.64h9m651.68 0h-9"/><text fill="#000" stroke="none" font-family="Arial" font-size="12" text-anchor="end" transform="translate(55.75 156.54)"><tspan> 4</tspan></text></g><path fill="none" stroke="gray" stroke-dasharray="2,4" stroke-width=".5" d="M64.14 107.77h660.68" class="gridline" color="gray"/><g fill="none" stroke="currentColor" color="#000"><path stroke="#000" d="M64.14 107.77h9m651.68 0h-9"/><text fill="#000" stroke="none" font-family="Arial" font-size="12" text-anchor="end" transform="translate(55.75 111.67)"><tspan> 6</tspan></text></g><path fill="none" stroke="gray" stroke-dasharray="2,4" stroke-width=".5" d="M64.14 62.89h660.68" class="gridline" color="gray"/><g fill="none" stroke="currentColor" color="#000"><path stroke="#000" d="M64.14 62.89h9m651.68 0h-9"/><text fill="#000" stroke="none" font-family="Arial" font-size="12" text-anchor="end" transform="translate(55.75 66.79)"><tspan> 8</tspan></text></g><path fill="none" stroke="gray" stroke-dasharray="2,4" stroke-width=".5" d="M64.14 18.01h660.68" class="gridline" color="gray"/><g fill="none" stroke="currentColor" color="#000"><path stroke="#000" d="M64.14 18.01h9m651.68 0h-9"/><text fill="#000" stroke="none" font-family="Arial" font-size="12" text-anchor="end" transform="translate(55.75 21.91)"><tspan> 10</tspan></text></g><path fill="none" stroke="gray" stroke-dasharray="2,4" stroke-width=".5" d="M64.14 242.4V18.01" class="gridline" color="gray"/><g fill="none" stroke="currentColor" color="#000"><path stroke="#000" d="M64.14 242.4v-9m0-215.39v9"/><text fill="#000" stroke="none" font-family="Arial" font-size="12" text-anchor="middle" transform="translate(64.14 264.3)"><tspan> 0</tspan></text></g><path fill="none" stroke="gray" stroke-dasharray="2,4" stroke-width=".5" d="M196.28 242.4V18.01" class="gridline" color="gray"/><g fill="none" stroke="currentColor" color="#000"><path stroke="#000" d="M196.28 242.4v-9m0-215.39v9"/><text fill="#000" stroke="none" font-family="Arial" font-size="12" text-anchor="middle" transform="translate(196.28 264.3)"><tspan> 0.01</tspan></text></g><path fill="none" stroke="gray" stroke-dasharray="2,4" stroke-width=".5" d="M328.41 242.4V18.01" class="gridline" color="gray"/><g fill="none" stroke="currentColor" color="#000"><path stroke="#000" d="M328.41 242.4v-9m0-215.39v9"/><text fill="#000" stroke="none" font-family="Arial" font-size="12" text-anchor="middle" transform="translate(328.41 264.3)"><tspan> 0.02</tspan></text></g><path fill="none" stroke="gray" stroke-dasharray="2,4" stroke-width=".5" d="M460.55 242.4V18.01" class="gridline" color="gray"/><g fill="none" stroke="currentColor" color="#000"><path stroke="#000" d="M460.55 242.4v-9m0-215.39v9"/><text fill="#000" stroke="none" font-family="Arial" font-size="12" text-anchor="middle" transform="translate(460.55 264.3)"><tspan> 0.03</tspan></text></g><path fill="none" stroke="gray" stroke-dasharray="2,4" stroke-width=".5" d="M592.68 242.4V18.01" class="gridline" color="gray"/><g fill="none" stroke="currentColor" color="#000"><path stroke="#000" d="M592.68 242.4v-9m0-215.39v9"/><text fill="#000" stroke="none" font-family="Arial" font-size="12" text-anchor="middle" transform="translate(592.68 264.3)"><tspan> 0.04</tspan></text></g><path fill="none" stroke="gray" stroke-dasharray="2,4" stroke-width=".5" d="M724.82 242.4V18.01" class="gridline" color="gray"/><g fill="none" stroke="currentColor" color="#000"><path stroke="#000" d="M724.82 242.4v-9m0-215.39v9"/><text fill="#000" stroke="none" font-family="Arial" font-size="12" text-anchor="middle" transform="translate(724.82 264.3)"><tspan> 0.05</tspan></text></g><path fill="none" stroke="#000" d="M64.14 18.01V242.4h660.68V18.01z" color="#000"/><text color="#000" font-family="Arial" font-size="12" text-anchor="middle" transform="rotate(-90 74.695 55.515)"><tspan>stress</tspan></text><text color="#000" font-family="Arial" font-size="12" text-anchor="middle" transform="translate(394.48 291.3)"><tspan>plastic strain</tspan></text><title>&quot;EPS&quot; u 1:2</title><path fill="none" stroke="#9400d3" stroke-width="2" d="M64.14 242.4v-56.1m0-168.29 7.25 5.47 7.24 5.33 7.22 5.21 7.2 5.07 7.19 4.96 7.18 4.83 7.16 4.71 7.15 4.6 7.13 4.49 7.12 4.38 7.11 4.27 7.1 4.17 7.09 4.06 7.07 3.97 7.06 3.87 7.06 3.77 7.04 3.69 7.03 3.59 7.02 3.5 7.01 3.42 6.99 3.34 7 3.26 6.98 3.17 6.97 3.1 6.96 3.02 6.95 2.95 6.95 2.88 6.94 2.81 6.93 2.73 6.92 2.68 6.91 2.6 6.91 2.55 6.9 2.48 6.89 2.42 6.88 2.36 6.88 2.3 6.87 2.25 6.87 2.19 6.86 2.14 6.85 2.09 6.85 2.04 6.84 1.98 6.83 1.94 6.83 1.89 6.83 1.85 6.82 1.8 6.81 1.75 6.81 1.71 6.8 1.68 6.8 1.63 6.79 1.59 6.79 1.55 6.79 1.51 6.78 1.48 6.78 1.44 6.77 1.41 6.77 1.37 6.76 1.34 6.76 1.3 6.76 1.28 6.75 1.24 6.75 1.21 6.75 1.18 6.74 1.16 6.74 1.12 6.74 1.1 6.73 1.07 6.73 1.05 6.73 1.02 6.72.99 6.72.97 6.72.95 6.71.93 6.72.9 6.71.88 6.71.85 6.7.84 6.7.82 6.7.8 6.7.77 6.7.76 6.69.74 6.69.72 6.69.71 6.69.68 6.69.67 6.68.66 6.68.64 6.68.62 6.68.61 6.68.59 6.67.58 6.68.56 6.61.54 7.61.42 8.28.42" color="#000"/><path fill="none" stroke="#000" d="M64.14 18.01V242.4h660.68V18.01z" color="#000"/></svg>

<?xml version="1.0" encoding="windows-1252"  standalone="no"?>
<svg 
 width="750" height="300"
 viewBox="0 0 750 300"
 xmlns="http://www.w3.org/2000/svg"
 xmlns:xlink="http://www.w3.org/1999/xlink"
>

<title>Gnuplot</title>
<desc>Produced by GNUPLOT 5.4 patchlevel 5 </desc>

<g id="gnuplot_canvas">

<rect x="0" y="0" width="750" height="300" fill="none"/>
<defs>

	<circle id='gpDot' r='0.5' stroke-width='0.5' stroke='currentColor'/>
	<path id='gpPt0' stroke-width='0.222' stroke='currentColor' d='M-1,0 h2 M0,-1 v2'/>
	<path id='gpPt1' stroke-width='0.222' stroke='currentColor' d='M-1,-1 L1,1 M1,-1 L-1,1'/>
	<path id='gpPt2' stroke-width='0.222' stroke='currentColor' d='M-1,0 L1,0 M0,-1 L0,1 M-1,-1 L1,1 M-1,1 L1,-1'/>
	<rect id='gpPt3' stroke-width='0.222' stroke='currentColor' x='-1' y='-1' width='2' height='2'/>
	<rect id='gpPt4' stroke-width='0.222' stroke='currentColor' fill='currentColor' x='-1' y='-1' width='2' height='2'/>
	<circle id='gpPt5' stroke-width='0.222' stroke='currentColor' cx='0' cy='0' r='1'/>
	<use xlink:href='#gpPt5' id='gpPt6' fill='currentColor' stroke='none'/>
	<path id='gpPt7' stroke-width='0.222' stroke='currentColor' d='M0,-1.33 L-1.33,0.67 L1.33,0.67 z'/>
	<use xlink:href='#gpPt7' id='gpPt8' fill='currentColor' stroke='none'/>
	<use xlink:href='#gpPt7' id='gpPt9' stroke='currentColor' transform='rotate(180)'/>
	<use xlink:href='#gpPt9' id='gpPt10' fill='currentColor' stroke='none'/>
	<use xlink:href='#gpPt3' id='gpPt11' stroke='currentColor' transform='rotate(45)'/>
	<use xlink:href='#gpPt11' id='gpPt12' fill='currentColor' stroke='none'/>
	<path id='gpPt13' stroke-width='0.222' stroke='currentColor' d='M0,1.330 L1.265,0.411 L0.782,-1.067 L-0.782,-1.076 L-1.265,0.411 z'/>
	<use xlink:href='#gpPt13' id='gpPt14' fill='currentColor' stroke='none'/>
	<filter id='textbox' filterUnits='objectBoundingBox' x='0' y='0' height='1' width='1'>
	  <feFlood flood-color='white' flood-opacity='1' result='bgnd'/>
	  <feComposite in='SourceGraphic' in2='bgnd' operator='atop'/>
	</filter>
	<filter id='greybox' filterUnits='objectBoundingBox' x='0' y='0' height='1' width='1'>
	  <feFlood flood-color='lightgrey' flood-opacity='1' result='grey'/>
	  <feComposite in='SourceGraphic' in2='grey' operator='atop'/>
	</filter>
</defs>
<g fill="none" color="white" stroke="currentColor" stroke-width="1.00" stroke-linecap="butt" stroke-linejoin="miter">
</g>
<g fill="none" color="black" stroke="currentColor" stroke-width="1.00" stroke-linecap="butt" stroke-linejoin="miter">
</g>
<g fill="none" color="black" stroke="black" stroke-width="0.50" stroke-linecap="butt" stroke-linejoin="miter">
</g>
<g fill="none" color="gray" stroke="currentColor" stroke-width="0.50" stroke-linecap="butt" stroke-linejoin="miter">
	<path stroke='gray' stroke-dasharray='2,4' class="gridline"  d='M64.14,242.40 L724.82,242.40  '/></g>
<g fill="none" color="gray" stroke="gray" stroke-width="1.00" stroke-linecap="butt" stroke-linejoin="miter">
</g>
<g fill="none" color="black" stroke="currentColor" stroke-width="1.00" stroke-linecap="butt" stroke-linejoin="miter">
	<path stroke='black'  d='M64.14,242.40 L73.14,242.40 M724.82,242.40 L715.82,242.40  '/>	<g transform="translate(55.75,246.30)" stroke="none" fill="black" font-family="Arial" font-size="12.00"  text-anchor="end">
		<text><tspan font-family="Arial" > 0</tspan></text>
	</g>
</g>
<g fill="none" color="black" stroke="currentColor" stroke-width="1.00" stroke-linecap="butt" stroke-linejoin="miter">
</g>
<g fill="none" color="black" stroke="black" stroke-width="0.50" stroke-linecap="butt" stroke-linejoin="miter">
</g>
<g fill="none" color="gray" stroke="currentColor" stroke-width="0.50" stroke-linecap="butt" stroke-linejoin="miter">
	<path stroke='gray' stroke-dasharray='2,4' class="gridline"  d='M64.14,197.52 L724.82,197.52  '/></g>
<g fill="none" color="gray" stroke="gray" stroke-width="1.00" stroke-linecap="butt" stroke-linejoin="miter">
</g>
<g fill="none" color="black" stroke="currentColor" stroke-width="1.00" stroke-linecap="butt" stroke-linejoin="miter">
	<path stroke='black'  d='M64.14,197.52 L73.14,197.52 M724.82,197.52 L715.82,197.52  '/>	<g transform="translate(55.75,201.42)" stroke="none" fill="black" font-family="Arial" font-size="12.00"  text-anchor="end">
		<text><tspan font-family="Arial" > 2</tspan></text>
	</g>
</g>
<g fill="none" color="black" stroke="currentColor" stroke-width="1.00" stroke-linecap="butt" stroke-linejoin="miter">
</g>
<g fill="none" color="black" stroke="black" stroke-width="0.50" stroke-linecap="butt" stroke-linejoin="miter">
</g>
<g fill="none" color="gray" stroke="currentColor" stroke-width="0.50" stroke-linecap="butt" stroke-linejoin="miter">
	<path stroke='gray' stroke-dasharray='2,4' class="gridline"  d='M64.14,152.64 L724.82,152.64  '/></g>
<g fill="none" color="gray" stroke="gray" stroke-width="1.00" stroke-linecap="butt" stroke-linejoin="miter">
</g>
<g fill="none" color="black" stroke="currentColor" stroke-width="1.00" stroke-linecap="butt" stroke-linejoin="miter">
	<path stroke='black'  d='M64.14,152.64 L73.14,152.64 M724.82,152.64 L715.82,152.64  '/>	<g transform="translate(55.75,156.54)" stroke="none" fill="black" font-family="Arial" font-size="12.00"  text-anchor="end">
		<text><tspan font-family="Arial" > 4</tspan></text>
	</g>
</g>
<g fill="none" color="black" stroke="currentColor" stroke-width="1.00" stroke-linecap="butt" stroke-linejoin="miter">
</g>
<g fill="none" color="black" stroke="black" stroke-width="0.50" stroke-linecap="butt" stroke-linejoin="miter">
</g>
<g fill="none" color="gray" stroke="currentColor" stroke-width="0.50" stroke-linecap="butt" stroke-linejoin="miter">
	<path stroke='gray' stroke-dasharray='2,4' class="gridline"  d='M64.14,107.77 L724.82,107.77  '/></g>
<g fill="none" color="gray" stroke="gray" stroke-width="1.00" stroke-linecap="butt" stroke-linejoin="miter">
</g>
<g fill="none" color="black" stroke="currentColor" stroke-width="1.00" stroke-linecap="butt" stroke-linejoin="miter">
	<path stroke='black'  d='M64.14,107.77 L73.14,107.77 M724.82,107.77 L715.82,107.77  '/>	<g transform="translate(55.75,111.67)" stroke="none" fill="black" font-family="Arial" font-size="12.00"  text-anchor="end">
		<text><tspan font-family="Arial" > 6</tspan></text>
	</g>
</g>
<g fill="none" color="black" stroke="currentColor" stroke-width="1.00" stroke-linecap="butt" stroke-linejoin="miter">
</g>
<g fill="none" color="black" stroke="black" stroke-width="0.50" stroke-linecap="butt" stroke-linejoin="miter">
</g>
<g fill="none" color="gray" stroke="currentColor" stroke-width="0.50" stroke-linecap="butt" stroke-linejoin="miter">
	<path stroke='gray' stroke-dasharray='2,4' class="gridline"  d='M64.14,62.89 L724.82,62.89  '/></g>
<g fill="none" color="gray" stroke="gray" stroke-width="1.00" stroke-linecap="butt" stroke-linejoin="miter">
</g>
<g fill="none" color="black" stroke="currentColor" stroke-width="1.00" stroke-linecap="butt" stroke-linejoin="miter">
	<path stroke='black'  d='M64.14,62.89 L73.14,62.89 M724.82,62.89 L715.82,62.89  '/>	<g transform="translate(55.75,66.79)" stroke="none" fill="black" font-family="Arial" font-size="12.00"  text-anchor="end">
		<text><tspan font-family="Arial" > 8</tspan></text>
	</g>
</g>
<g fill="none" color="black" stroke="currentColor" stroke-width="1.00" stroke-linecap="butt" stroke-linejoin="miter">
</g>
<g fill="none" color="black" stroke="black" stroke-width="0.50" stroke-linecap="butt" stroke-linejoin="miter">
</g>
<g fill="none" color="gray" stroke="currentColor" stroke-width="0.50" stroke-linecap="butt" stroke-linejoin="miter">
	<path stroke='gray' stroke-dasharray='2,4' class="gridline"  d='M64.14,18.01 L724.82,18.01  '/></g>
<g fill="none" color="gray" stroke="gray" stroke-width="1.00" stroke-linecap="butt" stroke-linejoin="miter">
</g>
<g fill="none" color="black" stroke="currentColor" stroke-width="1.00" stroke-linecap="butt" stroke-linejoin="miter">
	<path stroke='black'  d='M64.14,18.01 L73.14,18.01 M724.82,18.01 L715.82,18.01  '/>	<g transform="translate(55.75,21.91)" stroke="none" fill="black" font-family="Arial" font-size="12.00"  text-anchor="end">
		<text><tspan font-family="Arial" > 10</tspan></text>
	</g>
</g>
<g fill="none" color="black" stroke="currentColor" stroke-width="1.00" stroke-linecap="butt" stroke-linejoin="miter">
</g>
<g fill="none" color="black" stroke="black" stroke-width="0.50" stroke-linecap="butt" stroke-linejoin="miter">
</g>
<g fill="none" color="gray" stroke="currentColor" stroke-width="0.50" stroke-linecap="butt" stroke-linejoin="miter">
	<path stroke='gray' stroke-dasharray='2,4' class="gridline"  d='M64.14,242.40 L64.14,18.01  '/></g>
<g fill="none" color="gray" stroke="gray" stroke-width="1.00" stroke-linecap="butt" stroke-linejoin="miter">
</g>
<g fill="none" color="black" stroke="currentColor" stroke-width="1.00" stroke-linecap="butt" stroke-linejoin="miter">
	<path stroke='black'  d='M64.14,242.40 L64.14,233.40 M64.14,18.01 L64.14,27.01  '/>	<g transform="translate(64.14,264.30)" stroke="none" fill="black" font-family="Arial" font-size="12.00"  text-anchor="middle">
		<text><tspan font-family="Arial" > 0</tspan></text>
	</g>
</g>
<g fill="none" color="black" stroke="currentColor" stroke-width="1.00" stroke-linecap="butt" stroke-linejoin="miter">
</g>
<g fill="none" color="black" stroke="black" stroke-width="0.50" stroke-linecap="butt" stroke-linejoin="miter">
</g>
<g fill="none" color="gray" stroke="currentColor" stroke-width="0.50" stroke-linecap="butt" stroke-linejoin="miter">
	<path stroke='gray' stroke-dasharray='2,4' class="gridline"  d='M196.28,242.40 L196.28,18.01  '/></g>
<g fill="none" color="gray" stroke="gray" stroke-width="1.00" stroke-linecap="butt" stroke-linejoin="miter">
</g>
<g fill="none" color="black" stroke="currentColor" stroke-width="1.00" stroke-linecap="butt" stroke-linejoin="miter">
	<path stroke='black'  d='M196.28,242.40 L196.28,233.40 M196.28,18.01 L196.28,27.01  '/>	<g transform="translate(196.28,264.30)" stroke="none" fill="black" font-family="Arial" font-size="12.00"  text-anchor="middle">
		<text><tspan font-family="Arial" > 0.01</tspan></text>
	</g>
</g>
<g fill="none" color="black" stroke="currentColor" stroke-width="1.00" stroke-linecap="butt" stroke-linejoin="miter">
</g>
<g fill="none" color="black" stroke="black" stroke-width="0.50" stroke-linecap="butt" stroke-linejoin="miter">
</g>
<g fill="none" color="gray" stroke="currentColor" stroke-width="0.50" stroke-linecap="butt" stroke-linejoin="miter">
	<path stroke='gray' stroke-dasharray='2,4' class="gridline"  d='M328.41,242.40 L328.41,18.01  '/></g>
<g fill="none" color="gray" stroke="gray" stroke-width="1.00" stroke-linecap="butt" stroke-linejoin="miter">
</g>
<g fill="none" color="black" stroke="currentColor" stroke-width="1.00" stroke-linecap="butt" stroke-linejoin="miter">
	<path stroke='black'  d='M328.41,242.40 L328.41,233.40 M328.41,18.01 L328.41,27.01  '/>	<g transform="translate(328.41,264.30)" stroke="none" fill="black" font-family="Arial" font-size="12.00"  text-anchor="middle">
		<text><tspan font-family="Arial" > 0.02</tspan></text>
	</g>
</g>
<g fill="none" color="black" stroke="currentColor" stroke-width="1.00" stroke-linecap="butt" stroke-linejoin="miter">
</g>
<g fill="none" color="black" stroke="black" stroke-width="0.50" stroke-linecap="butt" stroke-linejoin="miter">
</g>
<g fill="none" color="gray" stroke="currentColor" stroke-width="0.50" stroke-linecap="butt" stroke-linejoin="miter">
	<path stroke='gray' stroke-dasharray='2,4' class="gridline"  d='M460.55,242.40 L460.55,18.01  '/></g>
<g fill="none" color="gray" stroke="gray" stroke-width="1.00" stroke-linecap="butt" stroke-linejoin="miter">
</g>
<g fill="none" color="black" stroke="currentColor" stroke-width="1.00" stroke-linecap="butt" stroke-linejoin="miter">
	<path stroke='black'  d='M460.55,242.40 L460.55,233.40 M460.55,18.01 L460.55,27.01  '/>	<g transform="translate(460.55,264.30)" stroke="none" fill="black" font-family="Arial" font-size="12.00"  text-anchor="middle">
		<text><tspan font-family="Arial" > 0.03</tspan></text>
	</g>
</g>
<g fill="none" color="black" stroke="currentColor" stroke-width="1.00" stroke-linecap="butt" stroke-linejoin="miter">
</g>
<g fill="none" color="black" stroke="black" stroke-width="0.50" stroke-linecap="butt" stroke-linejoin="miter">
</g>
<g fill="none" color="gray" stroke="currentColor" stroke-width="0.50" stroke-linecap="butt" stroke-linejoin="miter">
	<path stroke='gray' stroke-dasharray='2,4' class="gridline"  d='M592.68,242.40 L592.68,18.01  '/></g>
<g fill="none" color="gray" stroke="gray" stroke-width="1.00" stroke-linecap="butt" stroke-linejoin="miter">
</g>
<g fill="none" color="black" stroke="currentColor" stroke-width="1.00" stroke-linecap="butt" stroke-linejoin="miter">
	<path stroke='black'  d='M592.68,242.40 L592.68,233.40 M592.68,18.01 L592.68,27.01  '/>	<g transform="translate(592.68,264.30)" stroke="none" fill="black" font-family="Arial" font-size="12.00"  text-anchor="middle">
		<text><tspan font-family="Arial" > 0.04</tspan></text>
	</g>
</g>
<g fill="none" color="black" stroke="currentColor" stroke-width="1.00" stroke-linecap="butt" stroke-linejoin="miter">
</g>
<g fill="none" color="black" stroke="black" stroke-width="0.50" stroke-linecap="butt" stroke-linejoin="miter">
</g>
<g fill="none" color="gray" stroke="currentColor" stroke-width="0.50" stroke-linecap="butt" stroke-linejoin="miter">
	<path stroke='gray' stroke-dasharray='2,4' class="gridline"  d='M724.82,242.40 L724.82,18.01  '/></g>
<g fill="none" color="gray" stroke="gray" stroke-width="1.00" stroke-linecap="butt" stroke-linejoin="miter">
</g>
<g fill="none" color="black" stroke="currentColor" stroke-width="1.00" stroke-linecap="butt" stroke-linejoin="miter">
	<path stroke='black'  d='M724.82,242.40 L724.82,233.40 M724.82,18.01 L724.82,27.01  '/>	<g transform="translate(724.82,264.30)" stroke="none" fill="black" font-family="Arial" font-size="12.00"  text-anchor="middle">
		<text><tspan font-family="Arial" > 0.05</tspan></text>
	</g>
</g>
<g fill="none" color="black" stroke="currentColor" stroke-width="1.00" stroke-linecap="butt" stroke-linejoin="miter">
</g>
<g fill="none" color="black" stroke="currentColor" stroke-width="1.00" stroke-linecap="butt" stroke-linejoin="miter">
	<path stroke='black'  d='M64.14,18.01 L64.14,242.40 L724.82,242.40 L724.82,18.01 L64.14,18.01 Z  '/></g>
<g fill="none" color="black" stroke="currentColor" stroke-width="1.00" stroke-linecap="butt" stroke-linejoin="miter">
	<g transform="translate(19.18,130.21) rotate(270)" stroke="none" fill="black" font-family="Arial" font-size="12.00"  text-anchor="middle">
		<text><tspan font-family="Arial" >stress</tspan></text>
	</g>
</g>
<g fill="none" color="black" stroke="currentColor" stroke-width="1.00" stroke-linecap="butt" stroke-linejoin="miter">
	<g transform="translate(394.48,291.30)" stroke="none" fill="black" font-family="Arial" font-size="12.00"  text-anchor="middle">
		<text><tspan font-family="Arial" >plastic strain</tspan></text>
	</g>
</g>
<g fill="none" color="black" stroke="currentColor" stroke-width="1.00" stroke-linecap="butt" stroke-linejoin="miter">
</g>
	<g id="gnuplot_plot_1" ><title>"EPS" u 1:2</title>
<g fill="none" color="white" stroke="currentColor" stroke-width="2.00" stroke-linecap="butt" stroke-linejoin="miter">
</g>
<g fill="none" color="black" stroke="currentColor" stroke-width="2.00" stroke-linecap="butt" stroke-linejoin="miter">
	<path stroke='rgb(148,   0, 211)'  d='M64.14,242.40 L64.14,186.30 M64.14,18.01 L71.39,23.48 L78.63,28.81 L85.85,34.02 L93.05,39.09 L100.24,44.05
		L107.42,48.88 L114.58,53.59 L121.73,58.19 L128.86,62.68 L135.98,67.06 L143.09,71.33 L150.19,75.50 L157.28,79.56
		L164.35,83.53 L171.41,87.40 L178.47,91.17 L185.51,94.86 L192.54,98.45 L199.56,101.95 L206.57,105.37 L213.56,108.71
		L220.56,111.97 L227.54,115.14 L234.51,118.24 L241.47,121.26 L248.42,124.21 L255.37,127.09 L262.31,129.90 L269.24,132.63
		L276.16,135.31 L283.07,137.91 L289.98,140.46 L296.88,142.94 L303.77,145.36 L310.65,147.72 L317.53,150.02 L324.40,152.27
		L331.27,154.46 L338.13,156.60 L344.98,158.69 L351.83,160.73 L358.67,162.71 L365.50,164.65 L372.33,166.54 L379.16,168.39
		L385.98,170.19 L392.79,171.94 L399.60,173.65 L406.40,175.33 L413.20,176.96 L419.99,178.55 L426.78,180.10 L433.57,181.61
		L440.35,183.09 L447.13,184.53 L453.90,185.94 L460.67,187.31 L467.43,188.65 L474.19,189.95 L480.95,191.23 L487.70,192.47
		L494.45,193.68 L501.20,194.86 L507.94,196.02 L514.68,197.14 L521.42,198.24 L528.15,199.31 L534.88,200.36 L541.61,201.38
		L548.33,202.37 L555.05,203.34 L561.77,204.29 L568.48,205.22 L575.20,206.12 L581.91,207.00 L588.62,207.85 L595.32,208.69
		L602.02,209.51 L608.72,210.31 L615.42,211.08 L622.12,211.84 L628.81,212.58 L635.50,213.30 L642.19,214.01 L648.88,214.69
		L655.57,215.36 L662.25,216.02 L668.93,216.66 L675.61,217.28 L682.29,217.89 L688.97,218.48 L695.64,219.06 L702.32,219.62
		L708.93,220.16 L716.54,220.58 L724.82,221.00  '/></g>
	</g>
<g fill="none" color="black" stroke="currentColor" stroke-width="2.00" stroke-linecap="butt" stroke-linejoin="miter">
</g>
<g fill="none" color="black" stroke="black" stroke-width="1.00" stroke-linecap="butt" stroke-linejoin="miter">
</g>
<g fill="none" color="black" stroke="currentColor" stroke-width="1.00" stroke-linecap="butt" stroke-linejoin="miter">
	<path stroke='black'  d='M64.14,18.01 L64.14,242.40 L724.82,242.40 L724.82,18.01 L64.14,18.01 Z  '/></g>
<g fill="none" color="black" stroke="currentColor" stroke-width="1.00" stroke-linecap="butt" stroke-linejoin="miter">
</g>
</g>
</svg>
